X: 11461
T: Ebb Tide, The
R: hornpipe
M: 4/4
K: Gmajor
|:~B2AB GABc|d2g2g2 bg|fdcA BcdB|cABG =FAdc|
~B2AB GABc|defd gbe/f/g|fedB cedc|1 BdG2G2 z2:|2 Bdg2 ~g2g2||
|:bgdb gdBG|DGBd gabg|a=fcA FAcA|d=FAc dBcA|
Bdad gdBc|df~f2 gbe/f/g|fdcB cedc|1 Bdg2 gg~g2:|2 BdG2G2 z2||

